X: 20774
T: La SPERANZA
C:
%R: march, reel
B: Elias Howe "The Musician's Companion" 1843 p.77 #4
S: http://imslp.org/wiki/The_Musician's_Companion_(Howe,_Elias)
Z: 2015 John Chambers <jc:trillian.mit.edu>
M: 2/4
L: 1/16
K: F
% - - - - - - - - - - - - - - - - - - - - - - - - -
AB |\
c2c2f2c2 | A6 c2 | BABc ABcd | c2A2A2 AB |\
c2c2f2c2 | A6 c2 | BdcB AGFE | F2F2F2 :|
|: c2 |\
fedc defg | e2c2c2z2 | BABc BdcB | A2F2F2 c2 |\
fedc defg | f2c2c2c2 | BdcB AGFE | F6 :|
% - - - - - - - - - - - - - - - - - - - - - - - - -

%%sep 1 1 500

